assets/svg/logo_luna.svg

<svg fill="none" height="42" viewBox="0 0 140 42" width="140" xmlns="http://www.w3.org/2000/svg" xmlns:xlink="http://www.w3.org/1999/xlink"><mask id="a" height="42" maskUnits="userSpaceOnUse" width="20" x="19" y="0"><path clip-rule="evenodd" d="m19.4783.328613h19.4787v41.058487h-19.4787z" fill="#fff" fill-rule="evenodd"/></mask><mask id="b" height="42" maskUnits="userSpaceOnUse" width="20" x="0" y="0"><path clip-rule="evenodd" d="m0 .328613h19.4783v41.058487h-19.4783z" fill="#fff" fill-rule="evenodd"/></mask><g mask="url(#a)"><path d="m19.4783.328613c10.7405 0 19.4787 9.209257 19.4787 20.529287 0 11.3204-8.7382 20.5292-19.4787 20.5292v-5.8678c7.6692 0 13.9085-6.5755 13.9085-14.6585 0-8.0826-6.2393-14.65856-13.9085-14.65856z" fill="#d5b8e4"/></g><g mask="url(#b)"><path d="m19.4783 6.20224c-7.6688 0-13.90814 6.57596-13.90814 14.65856 0 8.083 6.23934 14.6585 13.90814 14.6585v5.8678c-10.74049 0-19.4783-9.2088-19.4783-20.5292 0-11.32003 8.73781-20.529287 19.4783-20.529287z" fill="#974ebc"/></g><g fill="#974ebc"><path d="m54.0973 6.22095h-4.0003v29.24985h17.9965v-3.5397c0-.7955-.6148-1.4439-1.3701-1.4439h-11.2545v-22.82063c0-.79723-.6148-1.44562-1.3716-1.44562z"/><path d="m86.5013 35.4706h3.4778v-21.4494h-3.7773c-.7615 0-1.3791.6518-1.3791 1.4544v12.616l-.0436.0581c-.4867.6555-2.2855 2.7888-4.9966 2.7888-.7648 0-2.2066-.1843-3.2776-1.4251-.7663-.9164-1.0781-2.0418-1.0781-3.8866v-11.6056h-3.8205c-.7374 0-1.3359.6317-1.3359 1.4076v9.971c0 3.0241.6513 5.2737 2.0515 7.0822 1.6508 2.1542 4.231 3.4401 6.9041 3.4401 2.0804 0 3.9732-.7454 5.4721-2.1555l.3396-.3214v.4807c0 .8512.6564 1.5447 1.4636 1.5447z"/><path d="m111.447 35.4707h3.79v-10.9291c0-3.4414-.626-5.693-2.092-7.5295-1.731-2.1881-4.295-3.4423-7.035-3.4423-2.126 0-4.056.7274-5.733 2.1622l-.333.2859v-1.9966h-3.6083c-.7358 0-1.3347.6317-1.3347 1.4076v18.5907c0 .7994.6183 1.4511 1.3763 1.4511h3.7797v-14.0637l.039-.0564c.659-.9678 2.6-2.7976 5.215-2.7976 1.322 0 2.484.4553 3.269 1.2813.911.9615 1.3 2.2362 1.3 4.2575v9.9383c0 .7943.614 1.4406 1.367 1.4406z"/><path clip-rule="evenodd" d="m139.122 35.4703h-3.478c-.807 0-1.465-.6927-1.465-1.5443v-.4653l-.337.3006c-1.599 1.4343-3.499 2.1609-5.645 2.1609-2.955 0-5.826-1.3545-7.677-3.6266-1.679-2.0447-2.604-4.7181-2.604-7.527 0-6.2796 4.383-11.1988 9.981-11.1988 2.247 0 4.303.7471 5.949 2.1626l.333.2876v-.5347c0-.8068.622-1.464 1.389-1.464h3.554zm-5.193-7.3297.036-.056v-6.6801l-.041-.0572c-1.265-1.7747-3.196-2.7943-5.298-2.7943-3.166 0-5.554 2.6734-5.554 6.2156 0 3.5175 2.442 6.1704 5.683 6.1704 2.083 0 4.019-1.0464 5.174-2.7984z" fill-rule="evenodd"/></g></svg>

<svg width="140" height="42" viewBox="0 0 140 42" fill="none" xmlns="http://www.w3.org/2000/svg">
<mask id="mask0" mask-type="alpha" maskUnits="userSpaceOnUse" x="19" y="0" width="20" height="42">
<path fill-rule="evenodd" clip-rule="evenodd" d="M19.4783 0.328613H38.957V41.3871H19.4783V0.328613Z" fill="white"/>
</mask>
<g mask="url(#mask0)">
<path d="M19.4783 0.328613C30.2188 0.328613 38.957 9.53787 38.957 20.8579C38.957 32.1783 30.2188 41.3871 19.4783 41.3871V35.5193C27.1475 35.5193 33.3868 28.9438 33.3868 20.8608C33.3868 12.7782 27.1475 6.20224 19.4783 6.20224V0.328613Z" fill="#D5B8E4"/>
</g>
<mask id="mask1" mask-type="alpha" maskUnits="userSpaceOnUse" x="0" y="0" width="20" height="42">
<path fill-rule="evenodd" clip-rule="evenodd" d="M0 0.328613H19.4783V41.3871H0V0.328613Z" fill="white"/>
</mask>
<g mask="url(#mask1)">
<path d="M19.4783 6.20224C11.8095 6.20224 5.57016 12.7782 5.57016 20.8608C5.57016 28.9438 11.8095 35.5193 19.4783 35.5193V41.3871C8.73781 41.3871 0 32.1783 0 20.8579C0 9.53787 8.73781 0.328613 19.4783 0.328613V6.20224Z" fill="#974EBC"/>
</g>
<path d="M54.0973 6.22095H50.097V35.4708H68.0935V31.9311C68.0935 31.1356 67.4787 30.4872 66.7234 30.4872H55.4689V7.66657C55.4689 6.86934 54.8541 6.22095 54.0973 6.22095Z" fill="#974EBC"/>
<path d="M86.5013 35.4706H89.9791V14.0212H86.2018C85.4403 14.0212 84.8227 14.673 84.8227 15.4756V28.0916L84.7791 28.1497C84.2924 28.8052 82.4936 30.9385 79.7825 30.9385C79.0177 30.9385 77.5759 30.7542 76.5049 29.5134C75.7386 28.597 75.4268 27.4716 75.4268 25.6268V14.0212H71.6063C70.8689 14.0212 70.2704 14.6529 70.2704 15.4288V25.3998C70.2704 28.4239 70.9217 30.6735 72.3219 32.482C73.9727 34.6362 76.5529 35.9221 79.226 35.9221C81.3064 35.9221 83.1992 35.1767 84.6981 33.7666L85.0377 33.4452V33.9259C85.0377 34.7771 85.6941 35.4706 86.5013 35.4706Z" fill="#974EBC"/>
<path d="M111.447 35.4707H115.237V24.5416C115.237 21.1002 114.611 18.8486 113.145 17.0121C111.414 14.824 108.85 13.5698 106.11 13.5698C103.984 13.5698 102.054 14.2972 100.377 15.732L100.044 16.0179V14.0213H96.4357C95.6999 14.0213 95.101 14.653 95.101 15.4289V34.0196C95.101 34.819 95.7193 35.4707 96.4773 35.4707H100.257V21.407L100.296 21.3506C100.955 20.3828 102.896 18.553 105.511 18.553C106.833 18.553 107.995 19.0083 108.78 19.8343C109.691 20.7958 110.08 22.0705 110.08 24.0918V34.0301C110.08 34.8244 110.694 35.4707 111.447 35.4707Z" fill="#974EBC"/>
<path fill-rule="evenodd" clip-rule="evenodd" d="M139.122 35.4703H135.644C134.837 35.4703 134.179 34.7776 134.179 33.926V33.4607L133.842 33.7613C132.243 35.1956 130.343 35.9222 128.197 35.9222C125.242 35.9222 122.371 34.5677 120.52 32.2956C118.841 30.2509 117.916 27.5775 117.916 24.7686C117.916 18.489 122.299 13.5698 127.897 13.5698C130.144 13.5698 132.2 14.3169 133.846 15.7324L134.179 16.02V15.4853C134.179 14.6785 134.801 14.0213 135.568 14.0213H139.122V35.4703ZM133.929 28.1406L133.965 28.0846V21.4045L133.924 21.3473C132.659 19.5726 130.728 18.553 128.626 18.553C125.46 18.553 123.072 21.2264 123.072 24.7686C123.072 28.2861 125.514 30.939 128.755 30.939C130.838 30.939 132.774 29.8926 133.929 28.1406Z" fill="#974EBC"/>
</svg>
